X:10
T:Oran do'n "Mharmion"
Z:Jack Campin, http://www.campin.me.uk/
B:Captain Eoghan Anderson: Measan Milis as an Lios (The Sweet Lapdog of Lismore), 1925
F:http://www.campin.me.uk/Music/Lismore.abc
I:last edit 17-12-2013
N:The Marmion was an explosives carrier ship
N:owned by Nobel of Glasgow from 1893 to 1910.
M:2/4
L:1/8
Q:1/4=80
K:F#Min
   A>F F<E|c>B c>E|E>E F>G|F2  F2  |
   B>A FE |c>B c>e|f>f e>f|c>c c3/
B/|A>A A>e|c>c c>e|A>F G>E|F2  F3/||
B/|A>A F>E|c>c c>e|f>f e>f|c>c c3/
B/|A>G A>e|c>c c>B|A>F G>E|F2  F2 |]

